packages/dnb-ui-lib/assets/icons/savings_account_out.svg

<svg width="16" height="16" viewBox="0 0 16 16" fill="none" xmlns="http://www.w3.org/2000/svg">
<path d="M12.7301 14.5852C12.6356 14.835 12.3995 15 12.1364 15H10.6419C10.3377 15 10.0758 14.7806 10.0173 14.4763L9.90909 13.6575C9.85086 13.3532 9.589 13.1335 9.2845 13.1335H8.18964C7.88545 13.1335 7.62359 13.3532 7.56505 13.6575L7.49186 14.4763C7.43364 14.7806 7.17177 15 6.86727 15H5.42495C5.14718 15 4.90186 14.8166 4.81818 14.5469L4.27218 12.504C4.21045 12.3044 4.05932 12.1478 3.86364 12.0833C3.07295 11.8231 1 10.8146 1 9.62361V8.44301C1 7.6688 1.59182 7.02907 2.35864 6.92894C2.50818 6.90917 2.64277 6.82653 2.74045 6.70921L3.08886 6.28921C3.24891 6.09639 3.28423 5.82611 3.17955 5.59731L2.85882 4.89667C2.69909 4.54796 2.87059 4.13412 3.22759 4.00838C3.52477 3.9037 3.8455 3.84375 4.16877 3.84375C4.62441 3.84375 5.05745 3.95264 5.43545 4.14384C6.40082 3.63083 7.72509 3.33333 8.95454 3.33333C10.6039 3.33333 12.0623 3.88229 13.1333 4.76999M8 1.93333C8 1.41782 8.41782 1 8.93333 1C9.44884 1 9.86667 1.41782 9.86667 1.93333M7.06667 6H10.3333M10.1778 9.55556H14.8444M13.2889 11.1111L14.8444 9.55556M14.8444 9.55556L13.2889 8" stroke="black" stroke-width="1.5" stroke-linecap="round" stroke-linejoin="round"/>
</svg>

<svg width="16" height="16" viewBox="0 0 16 16" fill="none" xmlns="http://www.w3.org/2000/svg"><path d="M12.73 14.585a.637.637 0 01-.594.415h-1.494a.64.64 0 01-.625-.524l-.108-.819a.64.64 0 00-.625-.524H8.19a.64.64 0 00-.625.525l-.073.818a.64.64 0 01-.625.524H5.425a.638.638 0 01-.607-.453l-.546-2.043a.638.638 0 00-.408-.42C3.073 11.823 1 10.813 1 9.623v-1.18c0-.774.592-1.414 1.359-1.514a.607.607 0 00.381-.22l.349-.42a.658.658 0 00.09-.692l-.32-.7a.653.653 0 01.369-.889 2.807 2.807 0 012.208.135c.965-.512 2.29-.81 3.519-.81 1.649 0 3.107.55 4.178 1.437M8 1.933a.933.933 0 111.867 0M7.067 6h3.266m-.155 3.556h4.666M13.29 11.11l1.555-1.555m0 0L13.29 8" stroke="#000" stroke-width="1.5" stroke-linecap="round" stroke-linejoin="round"/></svg>
